X:458
T:Off She Goes. RH.458
R:jig
S:Rev.R.Harrison’s MS,c1815,Cumbria
O:England
A:Temple Sowerby,Cumbria
Z:vmp.Simon Wilson. Review PJH, 2008.
M:6/8
L:1/8
Q:3/8=120
K:D
F2A G2B|ABc d3|F2A G2B|AGF E3|\
F2A G2B|ABc d3|f2d g2f|edc d3:|!
|:faf def|eae cde|faf def|ecA A3|\
faf def|eae cde|faf gec|ddd d3:|

